src/basic/400/u2193-down.svg

<svg width="24" height="32" viewBox="0 0 24 32" fill="none" xmlns="http://www.w3.org/2000/svg">
<path fill-rule="evenodd" clip-rule="evenodd" d="M12.5275,28.7961l9.8162,-9.8163l0.7071,0.7071l-10.6666,10.6667l-0.3535,0.3535l-0.3536,-0.3535l-10.66666,-10.6667l0.70711,-0.7071l9.80995,9.81v-28.7898h1z" fill="black"/>
</svg>

<svg width="24" height="32" viewBox="0 0 24 32" fill="none" xmlns="http://www.w3.org/2000/svg">
<path fill-rule="evenodd" clip-rule="evenodd" d="M12.5275 28.7961L22.3437 18.9798L23.0508 19.6869L12.3842 30.3536L12.0307 30.7071L11.6771 30.3536L1.01044 19.6869L1.71755 18.9798L11.5275 28.7898L11.5275 1.37414e-07L12.5275 1.25489e-07L12.5275 28.7961Z" fill="black"/>
</svg>
